X: 38701
T: Strawberry Blossom, The
R: reel
M: 4/4
K: Dmajor
e|f2df edBg|fAdf gfge|~f2df edBc|dBAF EFDg|
f2df edBA|(3Bcd ef gfge|fcdf (3efe ce|dBAF EFD a||
faaf d3e|fgaf g3|faaf gfef|gfed ~B2A a|
faaf d3e|fgaf gfga|bgaf gfed|cdef gfge||

